svgs/regular/hand-pointer.svg

<svg xmlns="http://www.w3.org/2000/svg" viewBox="0 0 448 512"><!--! Font Awesome Pro 6.0.0-alpha3 by @fontawesome - https://fontawesome.com License - https://fontawesome.com/license (Commercial License) --><path d="M208 288C199.2 288 192 295.2 192 304v96C192 408.8 199.2 416 208 416s16-7.164 16-16v-96C224 295.2 216.8 288 208 288zM272 288C263.2 288 256 295.2 256 304v96c0 8.836 7.162 16 15.1 16S288 408.8 288 400l-.0013-96C287.1 295.2 280.8 288 272 288zM376.9 201.2c-13.74-17.12-34.8-27.45-56.92-27.45h-13.72c-3.713 0-7.412 .291-11.07 .8652C282.7 165.1 267.4 160 251.4 160h-11.44V72c0-39.7-32.31-72-72.01-72c-39.7 0-71.98 32.3-71.98 72v168.5C84.85 235.1 75.19 235.4 69.83 235.4c-44.35 0-69.83 37.23-69.83 69.85c0 14.99 4.821 29.51 13.99 41.69l78.14 104.2C120.7 489.3 166.2 512 213.7 512h109.7c6.309 0 12.83-.957 18.14-2.645c28.59-5.447 53.87-19.41 73.17-40.44C436.1 446.3 448 416.2 448 384.2V274.3C448 234.6 416.3 202.3 376.9 201.2zM400 384.2c0 19.62-7.219 38.06-20.44 52.06c-12.53 13.66-29.03 22.67-49.69 26.56C327.4 463.6 325.3 464 323.4 464H213.7c-32.56 0-63.65-15.55-83.18-41.59L52.36 318.2C49.52 314.4 48.02 309.8 48.02 305.2c0-16.32 14.5-21.75 21.72-21.75c4.454 0 12.01 1.55 17.34 8.703l28.12 37.5c3.093 4.105 7.865 6.419 12.8 6.419c11.94 0 16.01-10.7 16.01-16.01V72c0-13.23 10.78-24 23.1-24c13.22 0 24 10.77 24 24v130.7c0 6.938 5.451 16.01 16.03 16.01C219.5 218.7 220.1 208 237.7 208h13.72c21.5 0 18.56 19.21 34.7 19.21c8.063 0 9.805-5.487 20.15-5.487h13.72c26.96 0 17.37 27.43 40.77 27.43l14.07-.0037c13.88 0 25.16 11.28 25.16 25.14V384.2zM336 288C327.2 288 320 295.2 320 304v96c0 8.836 7.164 16 16 16s16-7.164 16-16v-96C352 295.2 344.8 288 336 288z"/></svg>

<svg xmlns="http://www.w3.org/2000/svg" viewBox="0 0 448 512"><!-- Font Awesome Pro 6.0.0-alpha2 by @fontawesome - https://fontawesome.com License - https://fontawesome.com/license (Commercial License) --><path d="M208.001 288C199.165 288 192.001 295.162 192.001 304V400C192.001 408.836 199.165 416 208.001 416S224.001 408.836 224.001 400V304C224.001 295.162 216.836 288 208.001 288ZM272.001 288C263.165 288 256.001 295.162 256.001 304V400C256.001 408.836 263.165 416 272.001 416S288.001 408.836 288.001 400V304C288.001 295.162 280.836 288 272.001 288ZM376.928 201.17C363.184 184.047 342.124 173.719 320.008 173.719H306.29C302.577 173.719 298.878 174.01 295.221 174.584C282.667 165.127 267.417 160 251.448 160H240.012V72C240.012 32.299 207.713 0 168.014 0C128.317 0 96.02 32.299 96.02 72V240.525C84.855 235.995 75.193 235.443 69.833 235.443C25.48 235.443 0 272.672 0 305.298C0 320.287 4.821 334.804 13.987 346.992L92.126 451.193C120.698 489.27 166.157 512 213.731 512H323.446C329.754 512 336.276 511.043 341.586 509.355C370.176 503.908 395.458 489.941 414.758 468.914C436.137 446.303 448.001 416.164 448.001 384.219V274.281C448.001 234.648 416.307 202.275 376.928 201.17ZM400.003 384.219C400.003 403.844 392.784 422.281 379.565 436.281C367.036 449.937 350.536 458.953 329.879 462.844C327.381 463.625 325.288 464 323.444 464H213.729C181.169 464 150.077 448.453 130.545 422.406L52.362 318.172C49.518 314.367 48.018 309.837 48.018 305.16C48.018 288.841 62.519 283.406 69.737 283.406C74.191 283.406 81.75 284.956 87.079 292.109L115.204 329.609C118.297 333.715 123.069 336.028 127.999 336.028C139.942 336.028 144.014 325.333 144.014 320.016V72C144.014 58.766 154.795 48 168.012 48C181.231 48 192.012 58.766 192.012 72V202.672C192.012 209.61 197.463 218.68 208.047 218.68C219.53 218.68 220.065 208 237.729 208H251.446C272.948 208 270.009 227.206 286.141 227.206C294.204 227.206 295.946 221.719 306.288 221.719H320.006C346.966 221.719 337.379 249.144 360.772 249.144C360.902 249.144 361.031 249.143 361.161 249.141H374.846C388.721 249.141 400.003 260.422 400.003 274.281V384.219ZM336.001 288C327.165 288 320.001 295.162 320.001 304V400C320.001 408.836 327.165 416 336.001 416S352.001 408.836 352.001 400V304C352.001 295.162 344.836 288 336.001 288Z"/></svg>
